svg/fluentui-system-icons/ic_fluent_send_28_filled.svg

<svg width="28" height="28" viewBox="0 0 28 28" fill="none" xmlns="http://www.w3.org/2000/svg">
<path d="M3.7899 2.62467C2.82716 2.16569 1.76881 3.04571 2.04444 4.07604L4.05964 11.6091C4.16316 11.9961 4.48766 12.284 4.88425 12.3406L14.7676 13.7525C15.0538 13.7934 15.0538 14.2066 14.7676 14.2475L4.88529 15.6592C4.4887 15.7159 4.16421 16.0038 4.06068 16.3908L2.04444 23.9277C1.76881 24.958 2.82716 25.8381 3.7899 25.3791L25.2875 15.1302C26.2369 14.6776 26.2369 13.3262 25.2875 12.8735L3.7899 2.62467Z" fill="#212121"/>
</svg>

<svg xmlns="http://www.w3.org/2000/svg" width="28" height="28"><path d="M3.79 2.625c-.963-.46-2.021.42-1.746 1.451l2.016 7.533a1 1 0 0 0 .824.732l9.884 1.412c.286.04.286.454 0 .495l-9.883 1.411a1 1 0 0 0-.824.732l-2.017 7.537c-.275 1.03.783 1.91 1.746 1.451L25.288 15.13c.949-.452.949-1.804 0-2.257L3.79 2.626Z"/></svg>
